Newaita-dark/actions/scalable/tab-duplicate.svg

<?xml version="1.0" encoding="UTF-8"?>
<svg xmlns="http://www.w3.org/2000/svg" xmlns:xlink="http://www.w3.org/1999/xlink" width="512pt" height="512pt" viewBox="0 0 512 512" version="1.1">
<g id="surface1">
<path style=" stroke:none;fill-rule:nonzero;fill:rgb(74.117649%,74.117649%,74.117649%);fill-opacity:1;" d="M 52.921875 25.167969 C 35.332031 25.167969 21.167969 39.332031 21.167969 56.921875 L 21.167969 459.125 C 21.167969 476.71875 35.332031 490.878906 52.921875 490.878906 L 243.441406 490.878906 C 245.246094 490.878906 247.011719 490.730469 248.730469 490.441406 C 250.453125 490.730469 252.21875 490.878906 254.023438 490.878906 L 455.125 490.878906 C 472.71875 490.878906 486.878906 476.71875 486.878906 459.125 L 486.878906 289.777344 C 486.878906 272.1875 472.71875 258.023438 455.125 258.023438 L 275.191406 258.023438 L 275.191406 56.921875 C 275.191406 39.332031 261.03125 25.167969 243.441406 25.167969 Z M 74.089844 56.921875 L 222.269531 56.921875 C 234 56.921875 243.441406 66.363281 243.441406 78.089844 L 243.441406 289.777344 L 433.957031 289.777344 C 445.683594 289.777344 455.125 299.21875 455.125 310.945312 L 455.125 437.957031 C 455.125 449.6875 445.683594 459.125 433.957031 459.125 L 74.089844 459.125 C 62.363281 459.125 52.921875 449.6875 52.921875 437.957031 L 52.921875 78.089844 C 52.921875 66.363281 62.363281 56.921875 74.089844 56.921875 Z M 74.089844 56.921875 "/>
<path style=" stroke:none;fill-rule:nonzero;fill:rgb(47.058824%,56.470591%,61.176473%);fill-opacity:1;" d="M 317.53125 78.089844 L 423.375 78.089844 C 435.066406 78.089844 444.542969 87.566406 444.542969 99.257812 C 444.542969 110.949219 435.066406 120.429688 423.375 120.429688 L 317.53125 120.429688 C 305.839844 120.429688 296.363281 110.949219 296.363281 99.257812 C 296.363281 87.566406 305.839844 78.089844 317.53125 78.089844 Z M 317.53125 78.089844 "/>
<path style=" stroke:none;fill-rule:nonzero;fill:rgb(47.058824%,56.470591%,61.176473%);fill-opacity:1;" d="M 359.867188 162.765625 L 465.710938 162.765625 C 477.402344 162.765625 486.878906 172.242188 486.878906 183.933594 C 486.878906 195.625 477.402344 205.101562 465.710938 205.101562 L 359.867188 205.101562 C 348.175781 205.101562 338.699219 195.625 338.699219 183.933594 C 338.699219 172.242188 348.175781 162.765625 359.867188 162.765625 Z M 359.867188 162.765625 "/>
</g>
</svg>

<svg xmlns="http://www.w3.org/2000/svg" width="512pt" height="512pt" viewBox="0 0 512 512"><path d="M52.922 25.168c-17.59 0-31.754 14.164-31.754 31.754v402.203c0 17.594 14.164 31.754 31.754 31.754h190.52c1.804 0 3.57-.149 5.288-.438 1.723.29 3.489.438 5.293.438h201.102a31.682 31.682 0 0 0 31.754-31.754V289.777c0-17.59-14.16-31.754-31.754-31.754H275.191V56.922c0-17.59-14.16-31.754-31.75-31.754zM74.09 56.922h148.18A21.123 21.123 0 0 1 243.44 78.09v211.687h190.516a21.122 21.122 0 0 1 21.168 21.168v127.012a21.12 21.12 0 0 1-21.168 21.168H74.09a21.12 21.12 0 0 1-21.168-21.168V78.09A21.122 21.122 0 0 1 74.09 56.922zm0 0" fill="#bdbdbd"/><path d="M317.531 78.09h105.844c11.691 0 21.168 9.476 21.168 21.168 0 11.691-9.477 21.172-21.168 21.172H317.531c-11.691 0-21.168-9.48-21.168-21.172s9.477-21.168 21.168-21.168zm0 0M359.867 162.766h105.844c11.691 0 21.168 9.476 21.168 21.168 0 11.691-9.477 21.168-21.168 21.168H359.867c-11.691 0-21.168-9.477-21.168-21.168 0-11.692 9.477-21.168 21.168-21.168zm0 0" fill="#78909c"/></svg>
